Costumes/holly1.svg

<?xml version="1.0" encoding="UTF-8" standalone="no"?>
<svg
   version="1.1"
   width="43.981468"
   height="55.696705"
   id="svg17"
   sodipodi:docname="holly1.svg"
   xmlns:inkscape="http://www.inkscape.org/namespaces/inkscape"
   xmlns:sodipodi="http://sodipodi.sourceforge.net/DTD/sodipodi-0.dtd"
   xmlns="http://www.w3.org/2000/svg"
   xmlns:svg="http://www.w3.org/2000/svg">
  <defs
     id="defs21" />
  <sodipodi:namedview
     id="namedview19"
     pagecolor="#ffffff"
     bordercolor="#000000"
     borderopacity="0.25"
     inkscape:showpageshadow="2"
     inkscape:pageopacity="0.0"
     inkscape:pagecheckerboard="0"
     inkscape:deskcolor="#d1d1d1" />
  <!-- Exported by Scratch - http://scratch.mit.edu/ -->
  <g
     id="ID0.844333671964705"
     transform="translate(-9.3161584,-3.348633)">
    <path
       id="ID0.17891140887513757"
       fill="#216d2f"
       stroke="none"
       stroke-linecap="round"
       d="m 169.15,139.5 c 0.566,-0.147 1.458,-0.35 1.5,0.15 0.13,1.549 -1.556,2.949 -1.15,4.35 0.379,1.386 2.057,1.972 3.15,2.75 0.353,0.251 1.797,0.103 1.2,0.5 -2.371,1.567 -6.086,1.399 -7.7,3.75 -1.7,2.476 -1.326,5.974 -1.3,9 0.096,0.915 2.499,1.876 1.65,2.25 -2.772,1.224 -6.183,0.639 -9.25,1.1 -1.494,0.226 -3.073,0.556 -4.5,1.15 -1.405,0.587 -2.417,2.355 -4,2.65 -0.631,0.025 -0.665,-1.409 -0.5,-2 0.479,-1.721 2.131,-3.035 2.4,-4.8 -0.368,-5.359 -0.879,-5.99 -1.4,-7.5 -0.237,-0.553 -1.82,-1.117 -1.1,-1.35 2.88,-0.932 7.086,0.912 9.2,-1.35 1.93,-2.066 -0.055,-5.628 -0.1,-8.4 0.008,-0.74 -0.526,-1.248 0,-1.25 2.103,-0.007 3.998,1.338 6,1.15 2.113,-0.157 3.877,-1.62 5.9,-2.15 z"
       transform="matrix(0.81710964,-0.92018807,0.92018807,0.81710964,-248.35,46.35)" />
    <path
       id="path3"
       fill="#288439"
       stroke="none"
       stroke-linecap="round"
       d="m 169.15,139.5 c 0.566,-0.147 1.458,-0.35 1.5,0.15 0.13,1.549 -1.556,2.949 -1.15,4.35 0.379,1.386 2.057,1.972 3.15,2.75 0.353,0.251 1.797,0.103 1.2,0.5 -2.371,1.567 -6.086,1.399 -7.7,3.75 -1.7,2.476 -1.326,5.974 -1.3,9 0.096,0.915 2.499,1.876 1.65,2.25 -2.772,1.224 -6.183,0.639 -9.25,1.1 -1.494,0.226 -3.073,0.556 -4.5,1.15 -1.405,0.587 -2.417,2.355 -4,2.65 -0.631,0.025 -0.665,-1.409 -0.5,-2 0.479,-1.721 2.131,-3.035 2.4,-4.8 -0.368,-5.359 -0.879,-5.99 -1.4,-7.5 -0.237,-0.553 -1.82,-1.117 -1.1,-1.35 2.88,-0.932 7.086,0.912 9.2,-1.35 1.93,-2.066 -0.055,-5.628 -0.1,-8.4 0.008,-0.74 -0.526,-1.248 0,-1.25 2.103,-0.007 3.998,1.338 6,1.15 2.113,-0.157 3.877,-1.62 5.9,-2.15 z"
       transform="matrix(1.0997437,0,0,1.0997437,-138.05,-136.2)" />
    <g
       id="ID0.7790164602920413">
      <path
         id="ID0.426002811640501"
         fill="#cc0000"
         stroke="none"
         d="m 144.25,165 c 5.863,0 11.175,2.325 15.022,6.081 3.847,3.757 6.228,8.944 6.228,14.669 0,5.725 -2.381,10.912 -6.228,14.669 -3.847,3.756 -9.159,6.081 -15.022,6.081 -5.863,0 -11.175,-2.325 -15.022,-6.081 -3.847,-3.757 -6.228,-8.944 -6.228,-14.669 0,-5.725 2.381,-10.912 6.228,-14.669 3.847,-3.756 9.159,-6.081 15.022,-6.081 z"
         transform="matrix(0.37578723,0,0,0.37578723,-34.55,-20.7)" />
      <path
         id="ID0.5118507202714682"
         fill="#bd2e2e"
         stroke="none"
         stroke-linecap="round"
         d="m 173.05,196.8 c 2.979,-0.915 5.397,-3.287 8.4,-3.8 1.415,-0.259 3.697,0.291 3.9,1.65 0.355,2.401 -1.052,4.94 -2.5,6.85 -1.404,1.819 -3.532,3.1 -5.65,3.8 -2.381,0.787 -5.026,1.071 -7.5,0.6 -2.302,-0.322 -4.874,-1.057 -6.35,-2.9 -0.938,-1.17 -1.06,-3.687 0.2,-4.5 2.726,-1.76 6.428,-0.757 9.5,-1.7 z"
         transform="matrix(0.37578723,0,0,0.37578723,-44.35,-22.1)" />
      <path
         id="ID0.8249152726493776"
         fill="#ffadad"
         stroke="none"
         d="m 164.85,181.65 c 0.78,-0.294 1.671,-0.241 2.5,-0.15 1.326,0.143 2.695,0.299 3.8,1 0.637,0.405 1.303,1.337 0.85,1.9 -0.821,1.264 -2.591,1.531 -3.85,2.4 -1.578,1.089 -3.173,2.149 -4.5,3.6 -1.622,1.772 -2.034,5.001 -4.15,5.9 -1.161,0.491 -2.108,-1.936 -2.35,-3.3 -0.382,-1.724 -0.029,-3.596 0.6,-5.35 0.503,-1.404 1.412,-2.638 2.6,-3.65 1.288,-1.095 2.871,-1.734 4.5,-2.35 z"
         transform="matrix(0.36955017,0.06818128,-0.06818128,0.36955017,-30.55,-35.9)" />
    </g>
    <path
       id="ID0.35634810756891966"
       fill="#216d2f"
       stroke="none"
       stroke-linecap="round"
       d="m 155.7,155.75 c 1.393,-1.403 2.96,-2.919 4.3,-4.5 1.849,-2.181 5.274,-7.527 5,-6.75 -0.144,0.758 -3.52,7.941 -6.25,11.35 -2.587,3.231 -8.73,8.199 -9.25,8.3 -0.52,0.101 3.086,-4.699 4.75,-7 0.423,-0.527 0.977,-0.924 1.45,-1.4 z"
       transform="matrix(1.0997437,0,0,1.0997437,-138.05,-136.2)" />
    <g
       id="ID0.4590558926574886">
      <path
         id="ID0.7988728419877589"
         fill="#cc0000"
         stroke="none"
         stroke-linecap="round"
         d="m 182.25,159 c 5.863,0 11.175,2.325 15.022,6.081 3.847,3.757 6.228,8.944 6.228,14.669 0,5.725 -2.381,10.912 -6.228,14.669 -3.847,3.756 -9.159,6.081 -15.022,6.081 -5.863,0 -11.175,-2.325 -15.022,-6.081 -3.847,-3.757 -6.228,-8.944 -6.228,-14.669 0,-5.725 2.381,-10.912 6.228,-14.669 3.847,-3.756 9.159,-6.081 15.022,-6.081 z"
         transform="matrix(0.37578723,0,0,0.37578723,-39.25,-16.3)" />
      <path
         id="path11"
         fill="#ffadad"
         stroke="none"
         d="m 164.85,181.65 c 0.78,-0.294 1.671,-0.241 2.5,-0.15 1.326,0.143 2.695,0.299 3.8,1 0.637,0.405 1.303,1.337 0.85,1.9 -0.821,1.264 -2.591,1.531 -3.85,2.4 -1.578,1.089 -3.173,2.149 -4.5,3.6 -1.622,1.772 -2.034,5.001 -4.15,5.9 -1.161,0.491 -2.108,-1.936 -2.35,-3.3 -0.382,-1.724 -0.029,-3.596 0.6,-5.35 0.503,-1.404 1.412,-2.638 2.6,-3.65 1.288,-1.095 2.871,-1.734 4.5,-2.35 z"
         transform="matrix(0.37578723,0,0,0.37578723,-34.1,-23.35)" />
      <path
         id="path13"
         fill="#bd2e2e"
         stroke="none"
         stroke-linecap="round"
         d="m 173.05,196.8 c 2.979,-0.915 5.397,-3.287 8.4,-3.8 1.415,-0.259 3.697,0.291 3.9,1.65 0.355,2.401 -1.052,4.94 -2.5,6.85 -1.404,1.819 -3.532,3.1 -5.65,3.8 -2.381,0.787 -5.026,1.071 -7.5,0.6 -2.302,-0.322 -4.874,-1.057 -6.35,-2.9 -0.938,-1.17 -1.06,-3.687 0.2,-4.5 2.726,-1.76 6.428,-0.757 9.5,-1.7 z"
         transform="matrix(0.37578723,0,0,0.37578723,-34.7,-20.7)" />
    </g>
  </g>
</svg>

<svg version="1.1" width="54" height="60" xmlns="http://www.w3.org/2000/svg" xmlns:xlink="http://www.w3.org/1999/xlink">
  <!-- Exported by Scratch - http://scratch.mit.edu/ -->
  <g id="ID0.844333671964705">
    <path id="ID0.17891140887513757" fill="#216D2F" stroke="none" stroke-linecap="round" d="M 169.150 139.500 C 169.716 139.353 170.608 139.150 170.650 139.650 C 170.780 141.199 169.094 142.599 169.500 144 C 169.879 145.386 171.557 145.972 172.650 146.750 C 173.003 147.001 174.447 146.853 173.850 147.250 C 171.479 148.817 167.764 148.649 166.150 151 C 164.450 153.476 164.824 156.974 164.850 160 C 164.946 160.915 167.349 161.876 166.500 162.250 C 163.728 163.474 160.317 162.889 157.250 163.350 C 155.756 163.576 154.177 163.906 152.750 164.500 C 151.345 165.087 150.333 166.855 148.750 167.150 C 148.119 167.175 148.085 165.741 148.250 165.150 C 148.729 163.429 150.381 162.115 150.650 160.350 C 150.282 154.991 149.771 154.360 149.250 152.850 C 149.013 152.297 147.430 151.733 148.150 151.500 C 151.030 150.568 155.236 152.412 157.350 150.150 C 159.280 148.084 157.295 144.522 157.250 141.750 C 157.258 141.010 156.724 140.502 157.250 140.500 C 159.353 140.493 161.248 141.838 163.250 141.650 C 165.363 141.493 167.127 140.030 169.150 139.500 Z " transform="matrix(0.8171096444129944, -0.9201880693435669, 0.9201880693435669, 0.8171096444129944, -248.35, 46.35)"/>
    <path id="ID0.17891140887513757" fill="#288439" stroke="none" stroke-linecap="round" d="M 169.150 139.500 C 169.716 139.353 170.608 139.150 170.650 139.650 C 170.780 141.199 169.094 142.599 169.500 144 C 169.879 145.386 171.557 145.972 172.650 146.750 C 173.003 147.001 174.447 146.853 173.850 147.250 C 171.479 148.817 167.764 148.649 166.150 151 C 164.450 153.476 164.824 156.974 164.850 160 C 164.946 160.915 167.349 161.876 166.500 162.250 C 163.728 163.474 160.317 162.889 157.250 163.350 C 155.756 163.576 154.177 163.906 152.750 164.500 C 151.345 165.087 150.333 166.855 148.750 167.150 C 148.119 167.175 148.085 165.741 148.250 165.150 C 148.729 163.429 150.381 162.115 150.650 160.350 C 150.282 154.991 149.771 154.360 149.250 152.850 C 149.013 152.297 147.430 151.733 148.150 151.500 C 151.030 150.568 155.236 152.412 157.350 150.150 C 159.280 148.084 157.295 144.522 157.250 141.750 C 157.258 141.010 156.724 140.502 157.250 140.500 C 159.353 140.493 161.248 141.838 163.250 141.650 C 165.363 141.493 167.127 140.030 169.150 139.500 Z " transform="matrix(1.0997437238693237, 0, 0, 1.0997437238693237, -138.05, -136.2)"/>
    <g id="ID0.7790164602920413">
      <path id="ID0.426002811640501" fill="#CC0000" stroke="none" d="M 144.250 165 C 150.113 165 155.425 167.325 159.272 171.081 C 163.119 174.838 165.500 180.025 165.500 185.750 C 165.500 191.475 163.119 196.662 159.272 200.419 C 155.425 204.175 150.113 206.500 144.250 206.500 C 138.387 206.500 133.075 204.175 129.228 200.419 C 125.381 196.662 123 191.475 123 185.750 C 123 180.025 125.381 174.838 129.228 171.081 C 133.075 167.325 138.387 165 144.250 165 Z " transform="matrix(0.37578722834587097, 0, 0, 0.37578722834587097, -34.55, -20.7)"/>
      <path id="ID0.5118507202714682" fill="#BD2E2E" stroke="none" stroke-linecap="round" d="M 173.050 196.800 C 176.029 195.885 178.447 193.513 181.450 193 C 182.865 192.741 185.147 193.291 185.350 194.650 C 185.705 197.051 184.298 199.590 182.850 201.500 C 181.446 203.319 179.318 204.600 177.200 205.300 C 174.819 206.087 172.174 206.371 169.700 205.900 C 167.398 205.578 164.826 204.843 163.350 203 C 162.412 201.830 162.290 199.313 163.550 198.500 C 166.276 196.740 169.978 197.743 173.050 196.800 Z " transform="matrix(0.37578722834587097, 0, 0, 0.37578722834587097, -44.35, -22.1)"/>
      <path id="ID0.8249152726493776" fill="#FFADAD" stroke="none" d="M 164.850 181.650 C 165.630 181.356 166.521 181.409 167.350 181.500 C 168.676 181.643 170.045 181.799 171.150 182.500 C 171.787 182.905 172.453 183.837 172 184.400 C 171.179 185.664 169.409 185.931 168.150 186.800 C 166.572 187.889 164.977 188.949 163.650 190.400 C 162.028 192.172 161.616 195.401 159.500 196.300 C 158.339 196.791 157.392 194.364 157.150 193 C 156.768 191.276 157.121 189.404 157.750 187.650 C 158.253 186.246 159.162 185.012 160.350 184 C 161.638 182.905 163.221 182.266 164.850 181.650 Z " transform="matrix(0.3695501685142517, 0.06818128377199173, -0.06818128377199173, 0.3695501685142517, -30.55, -35.9)"/>
    </g>
    <path id="ID0.35634810756891966" fill="#216D2F" stroke="none" stroke-linecap="round" d="M 155.700 155.750 C 157.093 154.347 158.660 152.831 160 151.250 C 161.849 149.069 165.274 143.723 165 144.500 C 164.856 145.258 161.480 152.441 158.750 155.850 C 156.163 159.081 150.020 164.049 149.500 164.150 C 148.980 164.251 152.586 159.451 154.250 157.150 C 154.673 156.623 155.227 156.226 155.700 155.750 Z " transform="matrix(1.0997437238693237, 0, 0, 1.0997437238693237, -138.05, -136.2)"/>
    <g id="ID0.4590558926574886">
      <path id="ID0.7988728419877589" fill="#CC0000" stroke="none" stroke-linecap="round" d="M 182.250 159 C 188.113 159 193.425 161.325 197.272 165.081 C 201.119 168.838 203.500 174.025 203.500 179.750 C 203.500 185.475 201.119 190.662 197.272 194.419 C 193.425 198.175 188.113 200.500 182.250 200.500 C 176.387 200.500 171.075 198.175 167.228 194.419 C 163.381 190.662 161 185.475 161 179.750 C 161 174.025 163.381 168.838 167.228 165.081 C 171.075 161.325 176.387 159 182.250 159 Z " transform="matrix(0.37578722834587097, 0, 0, 0.37578722834587097, -39.25, -16.3)"/>
      <path id="ID0.8249152726493776" fill="#FFADAD" stroke="none" d="M 164.850 181.650 C 165.630 181.356 166.521 181.409 167.350 181.500 C 168.676 181.643 170.045 181.799 171.150 182.500 C 171.787 182.905 172.453 183.837 172 184.400 C 171.179 185.664 169.409 185.931 168.150 186.800 C 166.572 187.889 164.977 188.949 163.650 190.400 C 162.028 192.172 161.616 195.401 159.500 196.300 C 158.339 196.791 157.392 194.364 157.150 193 C 156.768 191.276 157.121 189.404 157.750 187.650 C 158.253 186.246 159.162 185.012 160.350 184 C 161.638 182.905 163.221 182.266 164.850 181.650 Z " transform="matrix(0.37578722834587097, 0, 0, 0.37578722834587097, -34.1, -23.35)"/>
      <path id="ID0.5118507202714682" fill="#BD2E2E" stroke="none" stroke-linecap="round" d="M 173.050 196.800 C 176.029 195.885 178.447 193.513 181.450 193 C 182.865 192.741 185.147 193.291 185.350 194.650 C 185.705 197.051 184.298 199.590 182.850 201.500 C 181.446 203.319 179.318 204.600 177.200 205.300 C 174.819 206.087 172.174 206.371 169.700 205.900 C 167.398 205.578 164.826 204.843 163.350 203 C 162.412 201.830 162.290 199.313 163.550 198.500 C 166.276 196.740 169.978 197.743 173.050 196.800 Z " transform="matrix(0.37578722834587097, 0, 0, 0.37578722834587097, -34.7, -20.7)"/>
    </g>
  </g>
</svg>
